X:128
T:Rambler
Z: id:dc-jig-107
M:6/8
L:1/8
K:A Major
F|ECE E2A|FEC E2e|fec ABc|BAF FAF|!
ECE E2A|FEC E2e|fec ABc|BcB A2:|!
e|ecA Ace|aff faf|ece fec|B3 Bcd|!
ecA Ace|aff faf|ecA BAB|cAA A2:|!

